X: 11272
T: Duvil's
R: strathspey
M: 4/4
K: Gmajor
|:F/|G2 B>G d>GB>G|G2 B>G F<AA>F|G2 B>G d>GB>G|c>ed>c B<G G3/2:|
f/|g>fg>d e>cd>B|c>AB>G F<AA>f|g>fg>d e>cd>B|c>ed>c B<GG>f|
g2 g>d e>cd>B|c2 (3BAG F<AA>D|G2 (3BAG d>GB<g|e>cA>d B<G G3/2||

